source/assets/images/sprite.svg

<svg version="1.1" xmlns="http://www.w3.org/2000/svg">
  <defs>
    <path id="rss" d="M1 0v1c3.32 0 6 2.68 6 6h1c0-3.86-3.14-7-7-7zm0 2v1c2.221 0 4 1.779 4 4h1c0-2.759-2.241-5-5-5zm0 2v1c1.109 0 2 .891 2 2h1c0-1.651-1.349-3-3-3zm0 2c-.552 0-1 .448-1 1s.448 1 1 1 1-.448 1-1-.448-1-1-1z" />
    <path id="envelope" d="M0 1v1l4 2 4-2v-1h-8zm0 2v4h8v-4l-4 2-4-2z" />
    <path id="download" d="M4.5 0c-1.21 0-2.27.86-2.5 2-1.1 0-2 .9-2 2 0 .37.111.7.281 1h2.719v-.5c0-.83.67-1.5 1.5-1.5s1.5.67 1.5 1.5v.5h1.906c.05-.16.094-.32.094-.5 0-.65-.42-1.29-1-1.5v-.5c0-1.38-1.12-2.5-2.5-2.5zm-.156 4a.5.5 0 0 0-.344.5v1.5h-1.5l2 2 2-2h-1.5v-1.5a.5.5 0 0 0-.594-.5.5.5 0 0 0-.063 0z" />
    <path id="heart" d="M2 1c-.55 0-1.046.224-1.406.594-.37.36-.594.856-.594 1.406 0 .55.224 1.046.594 1.406l3.406 3.438 3.406-3.438c.37-.37.594-.856.594-1.406 0-.55-.224-1.046-.594-1.406-.36-.37-.856-.594-1.406-.594-.55 0-1.046.224-1.406.594-.37.36-.594.856-.594 1.406 0-.55-.224-1.046-.594-1.406-.36-.37-.856-.594-1.406-.594z" />
    <path id="bitcoin" d="M4.92574757,4.63184466 C4.92592233,5.05763107 4.24015534,5.04586408 3.82238835,5.04586408 L3.82238835,4.21421359 C4.25834951,4.20559223 4.92578641,4.19370874 4.92574757,4.63184466 L4.92574757,4.63184466 Z M4.72559223,3.29497087 C4.72551456,2.90947573 4.21547573,2.92091262 3.82236893,2.92091262 L3.82236893,3.66840777 C4.20170874,3.66842718 4.72547573,3.66574757 4.72559223,3.29497087 L4.72559223,3.29497087 Z M8,4 C8,6.20914563 6.20914563,8 4,8 C1.79085437,8 0,6.20914563 0,4 C0,1.79085437 1.79085437,0 4,0 C6.20914563,0 8,1.79085437 8,4 L8,4 Z M5.35516505,3.80823301 C5.77031068,3.51087379 5.93897087,2.46025243 4.59656311,2.32180583 L4.59654369,1.66761165 L4.05285437,1.66761165 L4.0528932,2.30264078 L3.82238835,2.30264078 L3.82238835,1.66761165 L3.2791068,1.66761165 L3.27891262,2.30264078 L2.41128155,2.30264078 L2.41141748,2.89079612 L2.81456311,2.89056311 C2.9464466,2.89060194 2.97149515,2.95269903 2.97149515,3.03384466 L2.97149515,4.8916699 C2.97149515,4.99495146 2.92149515,5.04551456 2.80984466,5.04551456 L2.50551456,5.04551456 L2.40128155,5.6752233 L3.27902913,5.6752233 L3.27920388,6.33240777 L3.82240777,6.33240777 L3.82240777,5.6752233 L4.05291262,5.6752233 L4.05271845,6.33240777 L4.59642718,6.33240777 L4.59642718,5.6731068 C6.24108738,5.56023301 6.15318447,4.08413592 5.35516505,3.80823301 L5.35516505,3.80823301 Z" />
    <path id="swift" d="M7.28108926,4.92281304 C7.28108926,4.92281304 7.64780635,5.33584906 7.83055976,5.84734134 C8.01331316,6.35883362 8.01210287,6.98679245 7.97821483,7.00360206 C7.94432678,7.02041166 7.51588502,6.29279588 6.76429652,6.29279588 C6.01270802,6.29279588 5.63146747,7.00360206 4.30015129,7.00360206 C1.301059,7.00360206 0,4.5626072 0,4.5626072 C0,4.5626072 1.31921331,5.50034305 2.70136157,5.46672384 C4.08350983,5.43310463 4.46596067,5.03687822 4.46596067,5.03687822 C4.46596067,5.03687822 3.84750378,4.52538593 2.78366112,3.49279588 C1.71981846,2.46020583 0.721331316,1.04099485 0.721331316,1.04099485 C0.721331316,1.04099485 2.32375189,2.30291595 2.84054463,2.67272727 C3.35491679,3.04493997 3.86928896,3.3787307 3.86928896,3.3787307 C3.86928896,3.3787307 3.37186082,2.84562607 3.01966717,2.41698113 C2.66747352,1.98593482 1.77065053,0.693996569 1.77065053,0.693996569 C1.77065053,0.693996569 3.14795764,1.92830189 3.77488654,2.41818182 C4.40181543,2.90806175 5.6,3.7329331 5.6,3.7329331 C5.6,3.7329331 6.3225416,2.09759863 4.92344932,0 C8.32072617,2.18044597 7.28108926,4.92281304 7.28108926,4.92281304 Z" />
  </defs>
</svg>

<svg xmlns="http://www.w3.org/2000/svg">
  <defs>
    <path id="rss" d="M1 0v1c3.32 0 6 2.68 6 6h1c0-3.86-3.14-7-7-7zm0 2v1c2.221 0 4 1.779 4 4h1c0-2.759-2.241-5-5-5zm0 2v1c1.109 0 2 .891 2 2h1c0-1.651-1.349-3-3-3zm0 2c-.552 0-1 .448-1 1s.448 1 1 1 1-.448 1-1-.448-1-1-1z"/>
    <path id="envelope" d="M0 1v1l4 2 4-2v-1h-8zm0 2v4h8v-4l-4 2-4-2z"/>
    <path id="download" d="M4.5 0c-1.21 0-2.27.86-2.5 2-1.1 0-2 .9-2 2 0 .37.111.7.281 1h2.719v-.5c0-.83.67-1.5 1.5-1.5s1.5.67 1.5 1.5v.5h1.906c.05-.16.094-.32.094-.5 0-.65-.42-1.29-1-1.5v-.5c0-1.38-1.12-2.5-2.5-2.5zm-.156 4a.5.5 0 0 0-.344.5v1.5h-1.5l2 2 2-2h-1.5v-1.5a.5.5 0 0 0-.594-.5.5.5 0 0 0-.063 0z"/>
    <path id="heart" d="M2 1c-.55 0-1.046.224-1.406.594-.37.36-.594.856-.594 1.406 0 .55.224 1.046.594 1.406l3.406 3.438 3.406-3.438c.37-.37.594-.856.594-1.406 0-.55-.224-1.046-.594-1.406-.36-.37-.856-.594-1.406-.594-.55 0-1.046.224-1.406.594-.37.36-.594.856-.594 1.406 0-.55-.224-1.046-.594-1.406-.36-.37-.856-.594-1.406-.594z"/>
    <path id="bitcoin" d="M4.926 4.632c0 .426-.686.414-1.103.414v-.832c.436-.009 1.103-.021 1.103.418zm-.2-1.337c0-.385-.51-.374-.903-.374v.747c.379 0 .903-.003.903-.373zm3.274.705c0 2.209-1.791 4-4 4s-4-1.791-4-4 1.791-4 4-4 4 1.791 4 4zm-2.645-.192c.415-.297.584-1.348-.759-1.486v-.654h-.544v.635h-.231v-.635h-.543v.635h-.868v.588h.403c.132 0 .157.062.157.143v1.858c0 .103-.05.154-.162.154h-.304l-.104.63h.878v.657h.543v-.657h.231v.657h.544v-.659c1.645-.113 1.557-1.589.759-1.865z"/>
    <path id="swift" d="M7.281 4.923s.367.413.549.925c.183.511.182 1.139.148 1.156-.034.017-.462-.711-1.214-.711s-1.133.711-2.464.711c-2.999 0-4.3-2.441-4.3-2.441s1.319.938 2.701.904c1.382-.034 1.765-.43 1.765-.43s-.618-.511-1.682-1.544-2.062-2.452-2.062-2.452 1.602 1.262 2.119 1.632c.514.372 1.029.706 1.029.706s-.497-.533-.85-.962c-.352-.431-1.249-1.723-1.249-1.723s1.377 1.234 2.004 1.724 1.825 1.315 1.825 1.315.723-1.635-.677-3.733c3.397 2.18 2.358 4.923 2.358 4.923z"/>
  </defs>
</svg>
